X: 1
T: Henry's Hornpipe
C: Jonathan Jensen
S: printed page of unknown origin
Z: 2006 John Chambers <jc@trillian.mit.edu>
M: 3/2
L: 1/8
K: Dm
[| "Dm"a2d2- d2ef "Gm"gfed | "A"e2A2- A2=B^c dcBA | "Dm"d2^cd "A"e2A2 "Dm"f2d2 | "Gm"g2d2 "E"^g2e2 "A"a4 ||
|| "Dm"a2d2- d2ef "Gm"gfed | "A"e2A2- A2=B^c dcBA | "Dm"d2^cd "A"e2A2 "Dm"f2ga | "Gm"bagf "A"e4 "Dm"d4 |]
[| "F"c2f2- f2ag fedc | "Gm"B2G2- G2d2 "C7"c2B2 | "F"ABc2 "C7"Bcd2 "F"cdef | "Gm"gab2 "C7"a2g2 "F"f4 ||
|| "Dm"fga2 "Gm"g2f2 "A"e2A2 | "Bb"def2 "Gm"e2d2 "A"^c4 | "Dm"d4 {^cd}"A"e2A2 "Dm"f2ga | "Gm"bagf "A"e4 "Dm"d4 |]
